theme/assets/images/pic_locked.svg

<svg width="120" height="150" viewBox="0 0 120 150" fill="none" xmlns="http://www.w3.org/2000/svg">
<path d="M105 150H15C11.0218 150 7.20644 148.42 4.3934 145.607C1.58035 142.794 0 138.978 0 135V80C0 76.0218 1.58035 72.2064 4.3934 69.3934C7.20644 66.5804 11.0218 65 15 65H105C108.978 65 112.794 66.5804 115.607 69.3934C118.42 72.2064 120 76.0218 120 80V135C120 138.978 118.42 142.794 115.607 145.607C112.794 148.42 108.978 150 105 150V150ZM15 75C13.6739 75 12.4021 75.5268 11.4645 76.4645C10.5268 77.4021 10 78.6739 10 80V135C10 136.326 10.5268 137.598 11.4645 138.536C12.4021 139.473 13.6739 140 15 140H105C106.326 140 107.598 139.473 108.536 138.536C109.473 137.598 110 136.326 110 135V80C110 78.6739 109.473 77.4021 108.536 76.4645C107.598 75.5268 106.326 75 105 75H15Z" fill="black"/>
<path d="M100 75H20C18.6739 75 17.4021 74.4732 16.4645 73.5355C15.5268 72.5979 15 71.3261 15 70V40C15 29.3913 19.2143 19.2172 26.7157 11.7157C34.2172 4.21427 44.3913 0 55 0H65C75.6087 0 85.7828 4.21427 93.2843 11.7157C100.786 19.2172 105 29.3913 105 40V70C105 71.3261 104.473 72.5979 103.536 73.5355C102.598 74.4732 101.326 75 100 75ZM25 65H95V40C95 32.0435 91.8393 24.4129 86.2132 18.7868C80.5871 13.1607 72.9565 10 65 10H55C47.0435 10 39.4129 13.1607 33.7868 18.7868C28.1607 24.4129 25 32.0435 25 40V65Z" fill="black"/>
<path d="M60 110C58.0222 110 56.0888 109.414 54.4443 108.315C52.7998 107.216 51.5181 105.654 50.7612 103.827C50.0043 102 49.8063 99.9889 50.1922 98.0491C50.578 96.1093 51.5304 94.3275 52.9289 92.9289C54.3275 91.5304 56.1093 90.578 58.0491 90.1922C59.9889 89.8063 61.9996 90.0043 63.8268 90.7612C65.6541 91.5181 67.2159 92.7998 68.3147 94.4443C69.4135 96.0888 70 98.0222 70 100C70 102.652 68.9464 105.196 67.0711 107.071C65.1957 108.946 62.6522 110 60 110V110Z" fill="black"/>
<path d="M65 105H55V125H65V105Z" fill="black"/>
</svg>

<svg xmlns="http://www.w3.org/2000/svg" width="120" height="150" fill="none"><path fill="#000" d="M105 150H15a15 15 0 0 1-15-15V80a15 15 0 0 1 15-15h90a15 15 0 0 1 15 15v55a15 15 0 0 1-15 15M15 75a5 5 0 0 0-5 5v55a5 5 0 0 0 5 5h90a5 5 0 0 0 3.536-1.464A5 5 0 0 0 110 135V80a5 5 0 0 0-5-5z"/><path fill="#000" d="M100 75H20a5 5 0 0 1-5-5V40A40 40 0 0 1 55 0h10a40 40 0 0 1 40 40v30a5 5 0 0 1-5 5M25 65h70V40a30 30 0 0 0-30-30H55a30 30 0 0 0-30 30zm35 45a9.998 9.998 0 0 1-7.071-17.071A10 10 0 1 1 60 110"/><path fill="#000" d="M65 105H55v20h10z"/></svg>
